src/assets/skills/svg.svg

<svg height="100.006pt" viewBox="0 0 100 100.006" width="100pt" xmlns="http://www.w3.org/2000/svg"><path d="m.089.089h99.822v99.822h-99.822z" fill="#ffb13b"/><path d="m50.003 10.001c-4.991 0-9.163 3.217-10.828 7.232-.51 1.253-.805 2.703-.805 4.225 0 .175.005.348.013.52v-.025c-1.071-1.165-2.365-2.105-3.82-2.75l-.073-.03c-1.305-.545-2.82-.862-4.408-.862-.164 0-.327.002-.492.01h.023c-3.088.1-5.858 1.38-7.89 3.4-3.533 3.527-4.21 8.75-2.548 12.767.598 1.44 1.568 2.733 2.733 3.848-.095-.003-.208-.005-.323-.005-1.567 0-3.062.31-4.43.872l.078-.027c-4.018 1.662-7.233 5.832-7.233 10.827 0 4.99 3.218 9.163 7.233 10.828 1.457.602 3.08.832 4.712.787-1.19 1.128-2.167 2.44-2.772 3.9-1.663 4.018-.983 9.24 2.547 12.768 3.528 3.532 8.75 4.21 12.767 2.547 1.458-.602 2.768-1.587 3.893-2.772-.048 1.632.19 3.257.793 4.712 1.662 4.018 5.832 7.233 10.827 7.233 4.99 0 9.162-3.218 10.827-7.233.508-1.252.806-2.702.806-4.225 0-.175-.006-.347-.013-.52v.025c1.127 1.188 2.433 2.178 3.893 2.78 4.017 1.663 9.239.983 12.767-2.547 3.533-3.528 4.21-8.75 2.547-12.768-.675-1.527-1.615-2.822-2.772-3.885l-.007-.007c.147.007.32.01.495.01 1.52 0 2.972-.295 4.302-.833l-.077.028c4.017-1.663 7.232-5.833 7.232-10.828 0-4.99-3.218-9.162-7.232-10.827-1.248-.505-2.696-.798-4.213-.798-.177 0-.352.005-.528.013h.025c1.19-1.128 2.168-2.44 2.773-3.9 1.662-4.018.982-9.24-2.548-12.768-2.032-2.02-4.802-3.3-7.872-3.4h-.018c-.14-.005-.305-.01-.467-.01-1.59 0-3.105.318-4.485.893l.078-.028c-1.458.603-2.768 1.583-3.893 2.773.007-.145.01-.318.01-.49 0-1.52-.295-2.973-.83-4.3l.027.077c-1.662-4.017-5.832-7.232-10.827-7.232z"/><path d="m49.865 15.378c.042 0 .09-.002.138-.002 3.502 0 6.339 2.837 6.339 6.34 0 1.75-.709 3.335-1.854 4.482v12.978l9.172-9.173c0-3.502 2.837-6.34 6.34-6.34 3.502 0 6.34 2.838 6.34 6.34 0 3.503-2.838 6.34-6.34 6.34l-9.173 9.173h12.978c1.147-1.145 2.73-1.853 4.48-1.853 3.503 0 6.34 2.838 6.34 6.34 0 3.503-2.837 6.34-6.34 6.34-1.75 0-3.333-.707-4.48-1.852h-12.978l9.173 9.172c3.502 0 6.34 2.838 6.34 6.34 0 3.503-2.838 6.34-6.34 6.34-3.503 0-6.34-2.837-6.34-6.34l-9.172-9.172v12.977c1.145 1.148 1.852 2.73 1.852 4.48 0 3.503-2.838 6.34-6.34 6.34-3.503 0-6.34-2.837-6.34-6.34 0-1.75.708-3.332 1.853-4.48v-12.977l-9.173 9.172c0 3.503-2.838 6.34-6.34 6.34s-6.34-2.837-6.34-6.34c0-3.502 2.838-6.34 6.34-6.34l9.173-9.172h-12.978c-1.147 1.145-2.73 1.852-4.48 1.852-3.502 0-6.34-2.837-6.34-6.34 0-3.502 2.838-6.34 6.34-6.34 1.75 0 3.333.708 4.48 1.853h12.978l-9.173-9.173c-3.502 0-6.34-2.837-6.34-6.34 0-3.502 2.838-6.34 6.34-6.34s6.34 2.838 6.34 6.34l9.173 9.173v-12.978c-1.148-1.147-1.855-2.732-1.855-4.482 0-3.455 2.762-6.263 6.197-6.338h.008z" fill="#fff"/></svg>

<?xml version="1.0" encoding="UTF-8" standalone="no"?><!-- Generator: Gravit.io --><svg xmlns="http://www.w3.org/2000/svg" xmlns:xlink="http://www.w3.org/1999/xlink" style="isolation:isolate" viewBox="0 0 100 100.006" width="100pt" height="100.006pt"><path d=" M 0.089 0.089 L 99.911 0.089 L 99.911 99.911 L 0.089 99.911 L 0.089 0.089 Z " fill="rgb(255,177,59)"/><path d=" M 50.003 10.001 C 45.012 10.001 40.84 13.218 39.175 17.233 C 38.665 18.486 38.37 19.936 38.37 21.458 C 38.37 21.633 38.375 21.806 38.383 21.978 L 38.383 21.953 C 37.312 20.788 36.018 19.848 34.563 19.203 L 34.49 19.173 C 33.185 18.628 31.67 18.311 30.082 18.311 C 29.918 18.311 29.755 18.313 29.59 18.321 L 29.613 18.321 C 26.525 18.421 23.755 19.701 21.723 21.721 L 21.723 21.721 C 18.19 25.248 17.513 30.471 19.175 34.488 C 19.773 35.928 20.743 37.221 21.908 38.336 C 21.813 38.333 21.7 38.331 21.585 38.331 C 20.018 38.331 18.523 38.641 17.155 39.203 L 17.233 39.176 C 13.215 40.838 10 45.008 10 50.003 C 10 54.993 13.218 59.166 17.233 60.831 C 18.69 61.433 20.313 61.663 21.945 61.618 C 20.755 62.746 19.778 64.058 19.173 65.518 C 17.51 69.536 18.19 74.758 21.72 78.286 C 25.248 81.818 30.47 82.496 34.487 80.833 C 35.945 80.231 37.255 79.246 38.38 78.061 C 38.332 79.693 38.57 81.318 39.173 82.773 C 40.835 86.791 45.005 90.006 50 90.006 C 54.99 90.006 59.162 86.788 60.827 82.773 C 61.335 81.521 61.633 80.071 61.633 78.548 C 61.633 78.373 61.627 78.201 61.62 78.028 L 61.62 78.053 C 62.747 79.241 64.053 80.231 65.513 80.833 C 69.53 82.496 74.752 81.816 78.28 78.286 C 81.813 74.758 82.49 69.536 80.827 65.518 C 80.152 63.991 79.212 62.696 78.055 61.633 L 78.048 61.626 C 78.195 61.633 78.368 61.636 78.543 61.636 C 80.063 61.636 81.515 61.341 82.845 60.803 L 82.768 60.831 C 86.785 59.168 90 54.998 90 50.003 C 90 45.013 86.782 40.841 82.768 39.176 C 81.52 38.671 80.072 38.378 78.555 38.378 C 78.378 38.378 78.203 38.383 78.027 38.391 L 78.052 38.391 C 79.242 37.263 80.22 35.951 80.825 34.491 C 82.487 30.473 81.807 25.251 78.277 21.723 C 76.245 19.703 73.475 18.423 70.405 18.323 L 70.387 18.323 C 70.247 18.318 70.082 18.313 69.92 18.313 C 68.33 18.313 66.815 18.631 65.435 19.206 L 65.513 19.178 C 64.055 19.781 62.745 20.761 61.62 21.951 C 61.627 21.806 61.63 21.633 61.63 21.461 C 61.63 19.941 61.335 18.488 60.8 17.161 L 60.827 17.238 C 59.165 13.221 54.995 10.006 50 10.006 L 50.003 10.001 Z " fill="rgb(0,0,0)"/><path d=" M 49.865 15.378 C 49.907 15.378 49.955 15.376 50.003 15.376 C 53.505 15.376 56.342 18.213 56.342 21.716 C 56.342 23.466 55.633 25.051 54.488 26.198 L 54.488 26.198 L 54.488 39.176 L 63.66 30.003 C 63.66 26.501 66.497 23.663 70 23.663 C 73.502 23.663 76.34 26.501 76.34 30.003 C 76.34 33.506 73.502 36.343 70 36.343 L 70 36.343 L 60.827 45.516 L 73.805 45.516 C 74.952 44.371 76.535 43.663 78.285 43.663 C 81.788 43.663 84.625 46.501 84.625 50.003 C 84.625 53.506 81.788 56.343 78.285 56.343 C 76.535 56.343 74.952 55.636 73.805 54.491 L 73.805 54.491 L 60.827 54.491 L 70 63.663 C 73.502 63.663 76.34 66.501 76.34 70.003 C 76.34 73.506 73.502 76.343 70 76.343 C 66.497 76.343 63.66 73.506 63.66 70.003 L 63.66 70.003 L 54.488 60.831 L 54.488 73.808 C 55.633 74.956 56.34 76.538 56.34 78.288 C 56.34 81.791 53.502 84.628 50 84.628 C 46.497 84.628 43.66 81.791 43.66 78.288 C 43.66 76.538 44.368 74.956 45.513 73.808 L 45.513 73.808 L 45.513 60.831 L 36.34 70.003 C 36.34 73.506 33.502 76.343 30 76.343 C 26.498 76.343 23.66 73.506 23.66 70.003 C 23.66 66.501 26.498 63.663 30 63.663 L 30 63.663 L 39.173 54.491 L 26.195 54.491 C 25.048 55.636 23.465 56.343 21.715 56.343 C 18.213 56.343 15.375 53.506 15.375 50.003 C 15.375 46.501 18.213 43.663 21.715 43.663 C 23.465 43.663 25.048 44.371 26.195 45.516 L 26.195 45.516 L 39.173 45.516 L 30 36.343 C 26.498 36.343 23.66 33.506 23.66 30.003 C 23.66 26.501 26.498 23.663 30 23.663 C 33.502 23.663 36.34 26.501 36.34 30.003 L 45.513 39.176 L 45.513 26.198 C 44.365 25.051 43.658 23.466 43.658 21.716 C 43.658 18.261 46.42 15.453 49.855 15.378 L 49.863 15.378 L 49.865 15.378 Z " fill="rgb(255,255,255)"/></svg>
